logo/stenciljs-icon.svg

<?xml version="1.0" encoding="UTF-8"?>
<svg width="256px" height="197px" viewBox="0 0 256 197" version="1.1" xmlns="http://www.w3.org/2000/svg" xmlns:xlink="http://www.w3.org/1999/xlink" preserveAspectRatio="xMidYMid">
    <title>Stencil</title>
    <g>
        <path d="M193.065354,138.495015 L139.731692,196.923077 L41.5985231,196.923077 L94.4010831,138.495015 L193.065354,138.495015 Z M256,69.2476062 L202.694892,127.675077 L0,127.675077 L53.3053046,69.2476062 L256,69.2476062 Z M214.399015,2.13162821e-14 L161.311508,58.4277662 L62.9326769,58.4277662 L116.098954,2.13162821e-14 L214.399015,2.13162821e-14 Z" fill="#000000"></path>
    </g>
</svg>

<svg viewBox="0 0 256 197" xmlns="http://www.w3.org/2000/svg"><path d="M193.06 138.49l-53.34 58.42H41.58l52.8-58.43h98.66Zm62.93-69.25l-53.31 58.42H-.02l53.3-58.43h202.69ZM214.38-.01l-53.09 58.42H62.91L116.07-.02h98.3Z"/></svg>
